Sources/FrostedUI/Resources/Icons.xcassets/bank24.imageset/bank-24.svg

<svg width="24" height="25" viewBox="0 0 24 25" fill="none" xmlns="http://www.w3.org/2000/svg" data-fui-icon="true">
  <path
    d="M10.9229 0.483154C11.5943 0.117041 12.4057 0.117055 13.0771 0.483154L22.5771 5.66479C23.2999 6.05904 23.7499 6.81709 23.75 7.64038V8.74976C23.75 9.44011 23.1904 9.99976 22.5 9.99976H21.75V19.4363C22.6309 19.8035 23.2499 20.6733 23.25 21.6873C23.25 23.0334 22.1587 24.1248 20.8125 24.1248H3.1875C1.84131 24.1248 0.75 23.0334 0.75 21.6873C0.750088 20.6733 1.36911 19.8035 2.25 19.4363V9.99976H1.5C0.809644 9.99976 0.25 9.44011 0.25 8.74976V7.64038C0.250078 6.81709 0.700076 6.05904 1.42285 5.66479L10.9229 0.483154ZM3.1875 20.7498C2.6698 20.7498 2.25012 21.1696 2.25 21.6873C2.25 22.205 2.66973 22.6248 3.1875 22.6248H20.8125C21.3303 22.6248 21.75 22.205 21.75 21.6873C21.7499 21.1696 21.3302 20.7498 20.8125 20.7498H3.1875ZM3.75 9.99976V19.2498H6.5V9.99976H3.75ZM8 9.99976V19.2498H16V9.99976H8ZM17.5 9.99976V19.2498H20.25V9.99976H17.5ZM12.3594 1.79956C12.1356 1.67753 11.8644 1.67752 11.6406 1.79956L2.14062 6.98218C1.89995 7.11362 1.75008 7.36614 1.75 7.64038V8.49976H22.25V7.64038C22.2499 7.36614 22.1001 7.11362 21.8594 6.98218L12.3594 1.79956Z"
    fill="currentColor"
  />
</svg>

<svg xmlns="http://www.w3.org/2000/svg" width="24" height="25" fill="none" data-fui-icon="true" viewBox="0 0 24 25"><path fill="currentColor" d="M10.923.483a2.25 2.25 0 0 1 2.154 0l9.5 5.182A2.25 2.25 0 0 1 23.75 7.64v1.11c0 .69-.56 1.25-1.25 1.25h-.75v9.436a2.439 2.439 0 0 1-.937 4.689H3.188a2.438 2.438 0 0 1-.938-4.689V10H1.5C.81 10 .25 9.44.25 8.75V7.64c0-.823.45-1.581 1.173-1.975zM3.188 20.75a.938.938 0 0 0 0 1.875h17.625a.938.938 0 0 0 0-1.875zM3.75 10v9.25H6.5V10zM8 10v9.25h8V10zm9.5 0v9.25h2.75V10zm-5.14-8.2a.75.75 0 0 0-.72 0l-9.5 5.182a.75.75 0 0 0-.39.658v.86h20.5v-.86a.75.75 0 0 0-.39-.658z"/></svg>
